X: 201
T: Subconscious-Lee
T: (What is this thing called love)
M: 4/4
L: 1/8
C: Lee Konitz
Q: 1/4=170
%%staves (chords melody)
K: C
%%text (up)
%%vskip 20
P: A
V: chords
x3 ||"Gm7b5"x4 x4 | "C7"x4 x4 | "Fm6"x4 x4 | x4 x4 |
"Dm7b5"x4 x4 | "G7"x4 x4 | "Cmaj7"x4 x4 | x4 x4 ||
V: melody
^F GA || _B2z^F-F2G2 | z^FG_A FGc_B | (3_AGF =EF z4 | zC/D/ EF- (3FG_A _B=B- |
(3B_B=A F2 z4 | (3zD=E FG _B_AGF | EFEF ^F2z2 | z4 zD =E^F- ||
P: A
V: chords
"Gm7b5"x4 x4 | "C7"x4 x4 | "Fm6"x4 x4 | x4 x4 |
"Dm7b5"x4 x4 | "G7"x4 x4 | "Cmaj7"x4 x4 | x4 x4 ||
V: melody
FG2A- A_B^F2 | z3C (3_D2C2_A2 | =E2z2 EFG_A | D2z2 z2D=E |
F2=E2 FEDC | (3=B,_EG cd (3=AF_D z2 | (3=B,CE ^F2 z4 | z4 z=B, CD ||
P: B
V: chords clef=treble
"Cm7"x4 x4 | "F7"x4 x4 | "Bbmaj7"x4 x4 | x4 x4 |
"Ab7"x4 x4 | x4 x4 | "G7"x4 x4 | x4 x4 ||
V: melody
_ED=B,C DE_GF | _GFD_E _AGFE | DCF,2 z4 | (3z2G,2C2 (3F2_B2_e2 |
_A2z2 F_G=B=A | _A_GF_E FE=DE | =E2F_B z4 | z4 =B,C^CD ||
P: A
V: chords
"Gm7b5"x4 x4 | "C7"x4 x4 | "Fm6"x4 x4 | x4 x4 |
"Dm7b5"x4 x4 | "G7"x4 x4 | "Cmaj7"x4 x4 | x4 x4 |]
V: melody
_E2_D2 CDE=E | =A^F^DE FGcA | _A3G =EFGA | =B_BG_A =e2z2 |
=EF_B_A ^FG[=e2_d2] | ^C2D2 _B_AGF | =EFEF ^FGFG | ^G2z2 z4 |]
